images/mail.svg

<svg width="52" height="52" viewBox="0 0 52 52" fill="none" xmlns="http://www.w3.org/2000/svg">
<rect width="52" height="52" rx="26" fill="white" fill-opacity="0.2"/>
<g clip-path="url(#clip0_70_66)">
<path d="M33.001 15H19.001C17.6754 15.0016 16.4045 15.5289 15.4672 16.4662C14.5299 17.4036 14.0026 18.6744 14.001 20V32C14.0026 33.3256 14.5299 34.5964 15.4672 35.5338C16.4045 36.4711 17.6754 36.9984 19.001 37H33.001C34.3266 36.9984 35.5974 36.4711 36.5348 35.5338C37.4721 34.5964 37.9994 33.3256 38.001 32V20C37.9994 18.6744 37.4721 17.4036 36.5348 16.4662C35.5974 15.5289 34.3266 15.0016 33.001 15ZM19.001 17H33.001C33.5998 17.0012 34.1845 17.1815 34.6799 17.5178C35.1754 17.8541 35.5588 18.3309 35.781 18.887L28.123 26.546C27.5594 27.1073 26.7964 27.4225 26.001 27.4225C25.2056 27.4225 24.4425 27.1073 23.879 26.546L16.221 18.887C16.4431 18.3309 16.8266 17.8541 17.322 17.5178C17.8175 17.1815 18.4022 17.0012 19.001 17ZM33.001 35H19.001C18.2053 35 17.4423 34.6839 16.8797 34.1213C16.317 33.5587 16.001 32.7956 16.001 32V21.5L22.465 27.96C23.4036 28.8963 24.6752 29.422 26.001 29.422C27.3267 29.422 28.5983 28.8963 29.537 27.96L36.001 21.5V32C36.001 32.7956 35.6849 33.5587 35.1223 34.1213C34.5597 34.6839 33.7966 35 33.001 35Z" fill="white"/>
</g>
<defs>
<clipPath id="clip0_70_66">
<rect width="24" height="24" fill="white" transform="translate(14.001 14)"/>
</clipPath>
</defs>
</svg>

<svg xmlns="http://www.w3.org/2000/svg" width="52" height="52" fill="none"><rect width="52" height="52" fill="#fff" fill-opacity=".2" rx="26"/><g clip-path="url(#a)"><path fill="#fff" d="M33.001 15h-14a5.006 5.006 0 0 0-5 5v12a5.006 5.006 0 0 0 5 5h14a5.006 5.006 0 0 0 5-5V20a5.006 5.006 0 0 0-5-5Zm-14 2h14a3 3 0 0 1 2.78 1.887l-7.658 7.659a3.007 3.007 0 0 1-4.244 0l-7.658-7.659A3 3 0 0 1 19.001 17Zm14 18h-14a3 3 0 0 1-3-3V21.5l6.464 6.46a5.007 5.007 0 0 0 7.072 0l6.464-6.46V32a3 3 0 0 1-3 3Z"/></g><defs><clipPath id="a"><path fill="#fff" d="M14.001 14h24v24h-24z"/></clipPath></defs></svg>
